eggs/Great Jaggi.svg

<?xml version="1.0" encoding="UTF-8" standalone="no"?>
<!-- Created with Inkscape (http://www.inkscape.org/) -->

<svg
   xmlns:dc="http://purl.org/dc/elements/1.1/"
   xmlns:cc="http://creativecommons.org/ns#"
   xmlns:rdf="http://www.w3.org/1999/02/22-rdf-syntax-ns#"
   xmlns:svg="http://www.w3.org/2000/svg"
   xmlns="http://www.w3.org/2000/svg"
   xmlns:sodipodi="http://sodipodi.sourceforge.net/DTD/sodipodi-0.dtd"
   xmlns:inkscape="http://www.inkscape.org/namespaces/inkscape"
   width="150"
   height="150"
   viewBox="0 0 39.687499 39.687499"
   version="1.1"
   id="svg8"
   inkscape:version="0.92.4 (5da689c313, 2019-01-14)"
   sodipodi:docname="MHST2-Great Jaggi Egg.svg">
  <defs
     id="defs2" />
  <sodipodi:namedview
     id="base"
     pagecolor="#ffffff"
     bordercolor="#666666"
     borderopacity="1.0"
     inkscape:pageopacity="0.0"
     inkscape:pageshadow="2"
     inkscape:zoom="1.979899"
     inkscape:cx="137.27332"
     inkscape:cy="30.577617"
     inkscape:document-units="px"
     inkscape:current-layer="layer1"
     showgrid="false"
     units="px"
     inkscape:window-width="1304"
     inkscape:window-height="745"
     inkscape:window-x="-8"
     inkscape:window-y="-8"
     inkscape:window-maximized="1"
     showguides="true"
     inkscape:guide-bbox="true"
     inkscape:snap-smooth-nodes="true">
    <inkscape:grid
       type="xygrid"
       id="grid878" />
  </sodipodi:namedview>
  <metadata
     id="metadata5">
    <rdf:RDF>
      <cc:Work
         rdf:about="">
        <dc:format>image/svg+xml</dc:format>
        <dc:type
           rdf:resource="http://purl.org/dc/dcmitype/StillImage" />
        <dc:title></dc:title>
      </cc:Work>
    </rdf:RDF>
  </metadata>
  <g
     inkscape:label="Layer 1"
     inkscape:groupmode="layer"
     id="layer1"
     transform="translate(0,-257.31251)">
    <path
       inkscape:connector-curvature="0"
       style="fill:#ae6dff;fill-opacity:1;stroke:none;stroke-width:1.05833328;stroke-linecap:butt;stroke-linejoin:miter;stroke-miterlimit:4;stroke-dasharray:none;stroke-opacity:1"
       d="m 19.84375,259.34934 c -5.953125,0 -14.0797612,5.97667 -14.0797612,18.92236 0,10.44157 7.3398602,16.69148 14.0797612,16.69148 6.739901,0 14.079758,-6.24991 14.079758,-16.69148 0,-12.94569 -8.126633,-18.92236 -14.079758,-18.92236 z"
       id="path4584-5" />
    <path
       style="fill:#ff5454;fill-opacity:1;stroke:none;stroke-width:1px;stroke-linecap:butt;stroke-linejoin:miter;stroke-opacity:1"
       d="M 76.039062 7.2519531 C 71.745563 7.204673 66.995245 7.8786412 66.919922 9.2597656 C 66.785994 11.715136 70.357142 20.644531 73.125 20.644531 C 75.3125 20.644531 77.454798 16.759492 78.035156 15.777344 C 78.615514 14.795196 83.660717 10.777892 82.8125 8.6796875 C 82.441407 7.7617229 79.378451 7.2887266 76.039062 7.2519531 z M 57.703125 15.496094 C 55.64248 15.600531 51.138394 18.297463 52.8125 19.929688 C 54.598213 21.670765 61.606861 16.045476 58.080078 15.509766 C 57.966978 15.492592 57.840501 15.489131 57.703125 15.496094 z M 44.597656 20.6875 C 44.597656 20.6875 32.097376 33.232704 33.927734 34.527344 C 35.758091 35.821983 45.445874 30.956495 45.847656 28.054688 C 46.249443 25.152917 44.597656 20.6875 44.597656 20.6875 z M 73.046875 30.931641 C 67.11223 30.931641 61.366554 33.456507 61.429688 41.285156 C 61.492806 49.113843 59.220876 55.238412 52.402344 58.332031 C 45.583815 61.425612 44.446442 65.086771 46.277344 70.832031 C 48.108245 76.577253 71.518695 74.037108 81.697266 67.162109 C 91.875836 60.287111 95.357141 43.322514 91.25 39.304688 C 87.142855 35.286823 76.807819 30.931641 73.046875 30.931641 z M 102.21484 32.384766 C 99.973569 32.384766 98.047924 33.141454 98.332031 35.193359 C 98.616138 37.245227 101.99447 40.370293 104.48828 39.865234 C 106.9821 39.360138 106.76062 36.645908 106.28711 35.730469 C 105.8136 34.815029 103.44596 32.384766 102.21484 32.384766 z M 45.525391 35.498047 C 44.959319 35.475339 44.376415 35.561363 43.794922 35.777344 C 41.116567 36.772153 39.37528 44.081191 40.982422 48.634766 C 42.589564 53.188341 49.465128 49.259481 50.134766 45.152344 C 50.472126 43.083166 50.675252 40.188964 49.574219 38.136719 C 48.760877 36.620694 47.223605 35.56617 45.525391 35.498047 z M 25.177734 54.75 L 23.169922 63.544922 C 23.169922 63.544922 24.375837 65.778195 27.009766 64.349609 C 29.643694 62.921024 27.811663 56.758932 25.177734 54.75 z M 101.36328 56.646484 C 100.63358 56.614475 99.891287 56.674768 99.152344 56.849609 C 94.59079 57.928929 92.946709 65.375285 95.982422 69.482422 C 99.018135 73.589559 106.87472 74.482178 108.39258 69.125 C 109.91043 63.76786 108.85061 59.924345 107.14258 58.724609 C 105.62569 57.659123 103.5524 56.742512 101.36328 56.646484 z M 119.89258 66.666016 C 117.1778 66.666016 115.63154 69.002801 115.75781 72.222656 C 115.88409 75.442549 114.14812 77.619103 111.6543 79.955078 C 109.16049 82.291053 107.83463 83.301344 110.29688 89.078125 C 112.75912 94.854944 114.14643 101.58008 120.17578 101.58008 C 126.20512 101.58008 127.49945 91.804692 128.03516 82.429688 C 128.57087 73.054683 126.3922 66.666016 119.89258 66.666016 z M 28.662109 70.517578 C 24.684633 70.517578 20.582626 77.398813 22.855469 81.25 C 25.128313 85.101225 33.398546 87.247528 36.302734 87.5 C 39.20692 87.752548 39.270019 83.585151 38.638672 80.554688 C 38.007328 77.524224 32.576451 70.517578 28.662109 70.517578 z M 61.302734 79.609375 C 54.357935 79.609375 48.04522 83.83761 49.181641 87.751953 C 50.318061 91.666297 54.169347 94.191627 56.947266 92.423828 C 59.725188 90.656067 64.586294 87.373848 68.4375 87.878906 C 72.288706 88.384002 74.499305 86.300612 71.847656 83.207031 C 69.196008 80.11345 64.838271 79.609375 61.302734 79.609375 z M 92.554688 84.058594 C 87.661764 84.058594 84.473827 85.322023 83.96875 89.236328 C 83.463673 93.150672 84.821641 98.865211 87.410156 98.675781 C 89.998672 98.486427 90.787354 94.508262 91.734375 93.6875 C 92.681392 92.866738 96.721417 94.760482 98.205078 92.550781 C 99.688739 90.34108 99.973411 87.973579 99.121094 86.521484 C 98.26878 85.06939 94.98537 84.058594 92.554688 84.058594 z M 22.902344 90.599609 C 22.902344 90.599609 24.999442 104.21539 26.472656 104.92969 C 27.945871 105.64398 31.696709 99.751657 31.607422 96.582031 C 31.518136 93.412368 24.955915 90.599609 22.902344 90.599609 z M 66.291016 95.896484 C 61.871599 95.896484 51.769631 100.31701 52.148438 105.11523 C 52.527244 109.91346 56.694092 111.17515 57.009766 113.76367 C 57.325432 116.35219 56.821454 117.11072 58.652344 119.88867 C 60.483245 122.66655 63.70363 126.20126 68.123047 126.58008 C 72.542467 126.95886 76.450615 123.79072 76.048828 119.37109 C 75.647042 114.95147 72.00837 117.20674 71.472656 111.53711 C 70.936942 105.86744 73.571988 105.01842 72.589844 102.02734 C 71.607699 99.036263 69.055491 95.896484 66.291016 95.896484 z M 36.160156 105.82227 C 34.518044 105.64387 32.365226 110.37526 33.615234 112.29492 C 34.865225 114.21454 37.008371 113.36664 36.785156 111.40234 C 36.561941 109.43805 38.170486 108.9922 38.259766 108.05469 C 38.349038 107.11718 37.3207 105.94843 36.160156 105.82227 z M 99.017578 106.625 C 95.624723 106.625 96.204798 112.16209 94.597656 114.34961 C 92.99051 116.53709 91.161275 121.2687 94.152344 126.13477 C 97.143417 131.00083 104.91016 130.77761 108.03516 124.57227 C 111.16016 118.36689 103.70508 106.625 99.017578 106.625 z M 44.6875 119.97461 C 41.830359 119.97461 37.945872 123.14396 38.035156 124.30469 C 38.124466 125.46542 55.937778 138.72402 56.919922 138.00977 C 57.902062 137.29547 57.276772 133.63396 55 131.3125 C 52.723216 128.99108 48.794643 126.26871 48.4375 124.57227 C 48.080372 122.87582 47.276786 119.97461 44.6875 119.97461 z "
       transform="matrix(0.26458333,0,0,0.26458333,0,257.31251)"
       id="path4667" />
    <path
       style="opacity:0.23800001;fill:#ffffff;fill-opacity:1;stroke:none;stroke-width:0.26458332px;stroke-linecap:butt;stroke-linejoin:miter;stroke-opacity:1"
       d="m 19.84375,259.34933 c -8.8857,0 -14.0797606,9.48073 -14.0797606,18.92236 0,0 1.7175332,-16.91778 14.0797606,-16.91778 12.362227,0 14.07976,16.91778 14.07976,16.91778 0,-9.44163 -5.19406,-18.92236 -14.07976,-18.92236 z"
       id="path4669"
       inkscape:connector-curvature="0"
       sodipodi:nodetypes="scscs" />
    <path
       style="opacity:0.54100001;fill:#000000;stroke:none;stroke-width:0.26458332px;stroke-linecap:butt;stroke-linejoin:miter;stroke-opacity:1"
       d="m 5.7639894,278.27169 c 0.2495754,12.68227 10.9383316,16.69149 14.0797606,16.69149 3.141429,0 13.830186,-4.00922 14.07976,-16.69149 -1.821762,10.2695 -10.606269,13.43381 -14.07976,13.43381 -3.473491,0 -12.2579967,-3.16431 -14.0797606,-13.43381 z"
       id="path4617"
       inkscape:connector-curvature="0" />
    <path
       style="fill:none;stroke:#000000;stroke-width:1.05833328;stroke-linecap:butt;stroke-linejoin:miter;stroke-miterlimit:4;stroke-dasharray:none;stroke-opacity:1"
       d="m 19.84375,259.34933 c -5.953125,0 -14.0797606,5.97667 -14.0797606,18.92236 0,10.44158 7.3398596,16.69149 14.0797606,16.69149 6.739901,0 14.07976,-6.24991 14.07976,-16.69149 0,-12.94569 -8.126635,-18.92236 -14.07976,-18.92236 z"
       id="path4584"
       inkscape:connector-curvature="0" />
  </g>
</svg>

<svg xmlns="http://www.w3.org/2000/svg" viewBox="0 0 39.687 39.687"><path style="fill:#ae6dff;fill-opacity:1;stroke:none;stroke-width:1.05833328;stroke-linecap:butt;stroke-linejoin:miter;stroke-miterlimit:4;stroke-dasharray:none;stroke-opacity:1" d="M19.844 259.35c-5.953 0-14.08 5.976-14.08 18.922 0 10.441 7.34 16.691 14.08 16.691s14.08-6.25 14.08-16.691c0-12.946-8.127-18.923-14.08-18.923z" transform="translate(0 -257.313)"/><path style="fill:#ff5454;fill-opacity:1;stroke:none;stroke-width:1px;stroke-linecap:butt;stroke-linejoin:miter;stroke-opacity:1" d="M76.04 7.252c-4.294-.047-9.045.627-9.12 2.008-.134 2.455 3.437 11.385 6.205 11.385 2.188 0 4.33-3.886 4.91-4.868.58-.982 5.626-5 4.778-7.097-.372-.918-3.435-1.391-6.774-1.428zm-18.337 8.244c-2.06.105-6.565 2.801-4.89 4.434 1.785 1.74 8.794-3.885 5.267-4.42a1.898 1.898 0 0 0-.377-.014zm-13.105 5.191s-12.5 12.546-10.67 13.84c1.83 1.295 11.518-3.57 11.92-6.472.401-2.902-1.25-7.367-1.25-7.367zm28.449 10.245c-5.935 0-11.68 2.525-11.617 10.353.063 7.829-2.21 13.953-9.028 17.047-6.818 3.094-7.956 6.755-6.125 12.5 1.831 5.745 25.242 3.205 35.42-3.67 10.179-6.875 13.66-23.84 9.553-27.857-4.107-4.018-14.442-8.373-18.203-8.373zm29.168 1.453c-2.241 0-4.167.756-3.883 2.808.284 2.052 3.662 5.177 6.156 4.672 2.494-.505 2.273-3.22 1.8-4.135-.474-.915-2.842-3.345-4.073-3.345zm-56.69 3.113a4.434 4.434 0 0 0-1.73.28c-2.678.994-4.42 8.303-2.813 12.857 1.608 4.553 8.483.624 9.153-3.483.337-2.069.54-4.963-.56-7.015-.814-1.516-2.351-2.57-4.05-2.639zM25.178 54.75l-2.008 8.795s1.206 2.233 3.84.805c2.634-1.429.802-7.591-1.832-9.6zm76.185 1.896a8.048 8.048 0 0 0-2.21.204c-4.562 1.079-6.206 8.525-3.17 12.632 3.035 4.108 10.892 5 12.41-.357 1.517-5.357.458-9.2-1.25-10.4-1.517-1.066-3.59-1.982-5.78-2.079zm18.53 10.02c-2.715 0-4.261 2.337-4.135 5.557.126 3.22-1.61 5.396-4.104 7.732-2.494 2.336-3.82 3.346-1.357 9.123 2.462 5.777 3.85 12.502 9.879 12.502 6.03 0 7.323-9.775 7.86-19.15.535-9.375-1.644-15.764-8.143-15.764zm-91.23 3.852c-3.978 0-8.08 6.88-5.808 10.732 2.273 3.851 10.544 5.998 13.448 6.25 2.904.253 2.967-3.915 2.336-6.945-.632-3.03-6.063-10.037-9.977-10.037zm32.64 9.091c-6.945 0-13.258 4.229-12.121 8.143 1.136 3.914 4.987 6.44 7.765 4.672 2.778-1.768 7.64-5.05 11.49-4.545 3.852.505 6.062-1.578 3.41-4.672-2.651-3.094-7.009-3.598-10.544-3.598zm31.252 4.45c-4.893 0-8.081 1.263-8.586 5.177-.505 3.915.853 9.63 3.441 9.44 2.589-.19 3.377-4.168 4.324-4.989.947-.82 4.987 1.073 6.471-1.136 1.484-2.21 1.768-4.577.916-6.03-.852-1.452-4.136-2.462-6.566-2.462zm-69.653 6.54s2.097 13.616 3.57 14.33c1.474.715 5.225-5.177 5.135-8.347-.089-3.17-6.651-5.982-8.705-5.982zm43.389 5.297c-4.42 0-14.521 4.421-14.143 9.22.38 4.797 4.546 6.06 4.862 8.648.315 2.588-.189 3.347 1.642 6.125s5.052 6.312 9.471 6.691c4.42.379 8.328-2.79 7.926-7.209-.402-4.42-4.04-2.164-4.576-7.834-.536-5.67 2.099-6.519 1.117-9.51-.982-2.99-3.535-6.13-6.299-6.13zm-30.13 9.926c-1.643-.178-3.796 4.553-2.546 6.473s3.393 1.072 3.17-.893c-.223-1.964 1.385-2.41 1.475-3.347.089-.938-.94-2.107-2.1-2.233zm62.857.803c-3.393 0-2.813 5.537-4.42 7.725-1.607 2.187-3.437 6.919-.446 11.785 2.991 4.866 10.758 4.643 13.883-1.563 3.125-6.205-4.33-17.947-9.017-17.947zm-54.33 13.35c-2.858 0-6.742 3.169-6.653 4.33.09 1.16 17.903 14.419 18.885 13.705.982-.715.357-4.376-1.92-6.697-2.277-2.322-6.205-5.044-6.563-6.74-.357-1.697-1.16-4.598-3.75-4.598z" transform="scale(.26458)"/><path style="opacity:.23800001;fill:#fff;fill-opacity:1;stroke:none;stroke-width:.26458332px;stroke-linecap:butt;stroke-linejoin:miter;stroke-opacity:1" d="M19.844 259.35c-8.886 0-14.08 9.48-14.08 18.922 0 0 1.718-16.918 14.08-16.918s14.08 16.918 14.08 16.918c0-9.442-5.195-18.923-14.08-18.923z" transform="translate(0 -257.313)"/><path style="opacity:.54100001;fill:#000;stroke:none;stroke-width:.26458332px;stroke-linecap:butt;stroke-linejoin:miter;stroke-opacity:1" d="M5.764 278.272c.25 12.682 10.938 16.691 14.08 16.691 3.141 0 13.83-4.009 14.08-16.691-1.822 10.27-10.607 13.433-14.08 13.433-3.474 0-12.258-3.164-14.08-13.433z" transform="translate(0 -257.313)"/><path style="fill:none;stroke:#000;stroke-width:1.05833328;stroke-linecap:butt;stroke-linejoin:miter;stroke-miterlimit:4;stroke-dasharray:none;stroke-opacity:1" d="M19.844 259.35c-5.953 0-14.08 5.976-14.08 18.922 0 10.441 7.34 16.691 14.08 16.691s14.08-6.25 14.08-16.691c0-12.946-8.127-18.923-14.08-18.923z" transform="translate(0 -257.313)"/></svg>
